app/images/hide.svg

<svg height="12" viewBox="0 0 16 12" width="16" xmlns="http://www.w3.org/2000/svg"><g fill="#fff" fill-rule="evenodd"><path d="m12.7924541.68552564-10.290344 10.56651376.70809248.7259986 10.28934392-10.56651379z"/><path d="m4.53087507 6.33167913c0-1.96748692 1.554203-3.56221927 3.47045328-3.56221927.40205251 0 .78110202.08420351 1.14014892.21256252l.88111503-.90467431c-.65308525-.14581584-1.32617316-.2392612-2.02126395-.2392612-3.36043891 0-6.31282452 1.79086493-8.00104502 4.49359226.75709889 1.21170906 1.77723213 2.22523182 2.96638744 2.99127839l1.77223147-1.81961734c-.12601645-.36864708-.20802717-.75885847-.20802717-1.17166105"/><path d="m13.0194751 3.34029805-1.7681102 1.82064421c.1257234.36864708.2075434.75885848.2075434 1.17063418 0 1.9685138-1.55058867 3.56324615-3.46238273 3.56324615-.40211534 0-.77928557-.08420351-1.13849531-.2135894l-.87906605.90467431c.65256436.1458158 1.32408701.2402881 2.01756136.2402881 3.35162643 0 6.29714633-1.79189182 7.98243863-4.49461916-.7553382-1.21170906-1.774097-2.22523181-2.9594891-2.99127839"/><path d="m8.00102831 8.7499629c1.30116995 0 2.35430749-1.08232318 2.35430749-2.41828377 0-.07393479-.0140018-.14478896-.0210027-.21769688l-2.54533248 2.61441633c.07100927.00616124.14001829.02156432.21202769.02156432"/><path d="m8.00102831 3.9139088c-1.30116994 0-2.35430749 1.08232318-2.35430749 2.41725689 0 .07496167.01400182.14581584.02100274.21769689l2.54533244-2.61338947c-.07100927-.00616123-.14001828-.02156431-.21202769-.02156431"/></g></svg>

<?xml version="1.0" encoding="UTF-8"?>
<svg width="16px" height="12px" viewBox="0 0 16 12" version="1.1" xmlns="http://www.w3.org/2000/svg" xmlns:xlink="http://www.w3.org/1999/xlink">
    <!-- Generator: Sketch 50.2 (55047) - http://www.bohemiancoding.com/sketch -->
    <title>hide</title>
    <desc>Created with Sketch.</desc>
    <defs></defs>
    <g id="Extension-(mobile-form-factor)" stroke="none" stroke-width="1" fill="none" fill-rule="evenodd">
        <g id="hide" fill="#FFFFFF">
            <polygon id="Fill-1" points="12.7924541 0.685525644 2.5021101 11.2520394 3.21020258 11.978038 13.4995465 1.41152421"></polygon>
            <path d="M4.53087507,6.33167913 C4.53087507,4.36419221 6.08507807,2.76945986 8.00132835,2.76945986 C8.40338086,2.76945986 8.78243037,2.85366337 9.14147727,2.98202238 L10.0225923,2.07734807 C9.36950705,1.93153223 8.69641914,1.83808687 8.00132835,1.83808687 C4.64088944,1.83808687 1.68850383,3.6289518 0.000283333333,6.33167913 C0.757382218,7.54338819 1.77751546,8.55691095 2.96667077,9.32295752 L4.73890224,7.50334018 C4.61288579,7.1346931 4.53087507,6.74448171 4.53087507,6.33167913" id="Fill-2"></path>
            <path d="M13.0194751,3.34029805 L11.2513649,5.16094226 C11.3770883,5.52958934 11.4589083,5.91980074 11.4589083,6.33157644 C11.4589083,8.30009024 9.90831963,9.89482259 7.99652557,9.89482259 C7.59441023,9.89482259 7.21724,9.81061908 6.85803026,9.68123319 L5.97896421,10.5859075 C6.63152857,10.7317233 7.30305122,10.8261956 7.99652557,10.8261956 C11.348152,10.8261956 14.2936719,9.03430378 15.9789642,6.33157644 C15.223626,5.11986738 14.2048672,4.10634463 13.0194751,3.34029805" id="Fill-4"></path>
            <path d="M8.00102831,8.7499629 C9.30219826,8.7499629 10.3553358,7.66763972 10.3553358,6.33167913 C10.3553358,6.25774434 10.341334,6.18689017 10.3343331,6.11398225 L7.78900062,8.72839858 C7.86000989,8.73455982 7.92901891,8.7499629 8.00102831,8.7499629" id="Fill-7"></path>
            <path d="M8.00102831,3.9139088 C6.69985837,3.9139088 5.64672082,4.99623198 5.64672082,6.33116569 C5.64672082,6.40612736 5.66072264,6.47698153 5.66772356,6.54886258 L8.213056,3.93547311 C8.14204673,3.92931188 8.07303772,3.9139088 8.00102831,3.9139088" id="Fill-9"></path>
        </g>
    </g>
</svg>
